;FLAVOR:Marlin
;TIME:6243
;Filament used: 5.31551m
;Layer height: 0.22
;MINX:117.477
;MINY:44.649
;MINZ:0.12
;MAXX:191.392
;MAXY:150.975
;MAXZ:30.92
;Generated with Cura_SteamEngine 4.13.1
M140 S55
M105
M190 S55
M104 S220
M105
M109 S220
M82 ;absolute extrusion mode
; Script based on an original created by tjjfvi (https://github.com/tjjfvi)
; An up-to-date version of the tjjfvi's original script can be found
; here:  https://csi.t6.fyi/
; Note - This script will only work in Cura V4.2 and above!
; --- Global Settings
; layer_height = 0.22
; smooth_spiralized_contours = True
; magic_mesh_surface_mode = normal
; machine_extruder_count = 1
; --- Single Extruder Settings
; speed_z_hop = 5
; retraction_amount = 7
; retraction_hop = 0.2
; retraction_hop_enabled = False
; retraction_enable = True
; retraction_speed = 65
; retraction_retract_speed = 65
; retraction_prime_speed = 65
; speed_travel = 175.0

; Ender 3 Custom Start G-code
G92 E0 ; Reset Extruder
G28 ; Home all axes
G1 Z2.0 F3000 ; Move Z Axis up little to prevent scratching of Heat Bed
G1 X0.1 Y20 Z0.3 F5000.0 ; Move to start position
G1 X0.1 Y200.0 Z0.3 F1500.0 E15 ; Draw the first line
G1 X0.4 Y200.0 Z0.3 F5000.0 ; Move to side a little
G1 X0.4 Y20 Z0.3 F1500.0 E30 ; Draw the second line
G92 E0 ; Reset Extruder
G1 Z2.0 F3000 ; Move Z Axis up little to prevent scratching of Heat Bed
G1 X5 Y20 Z0.3 F5000.0 ; Move over to prevent blob squish
G92 E0
G92 E0
G1 F3900 E-7
;LAYER_COUNT:141
;LAYER:0
M107
G0 F6000 X129.786 Y49.841 Z0.12
;TYPE:SUPPORT
G1 F3900 E0
G1 F1200 X130.834 Y49.079 E0.02586
G1 X131.888 Y49.079 E0.04689
G1 X131.889 Y51.611 E0.09742
G1 X132.592 Y52.314 E0.11726
G1 X132.926 Y52.314 E0.12393
G1 X132.112 Y53.059 E0.14595
G1 X130.834 Y53.059 E0.17145
G1 X129.786 Y52.297 E0.19731
G1 X129.386 Y51.069 E0.22308
G1 X129.786 Y49.841 E0.24886
G1 F3900 E-6.75114
G0 F6000 X128.963 Y49.574
G0 X128.479 Y51.069
G0 X129.052 Y52.83
G0 X130.553 Y53.922
G0 X136.098 Y54.668
G0 X136.607 Y55.367
G1 F3900 E0.24886
G1 F1200 X137.655 Y54.605 E0.27471
G1 X138.945 Y54.605 E0.30046
G1 X139.993 Y55.367 E0.32631
G1 X140.393 Y56.595 E0.35209
G1 X139.993 Y57.823 E0.37786
G1 X138.945 Y58.585 E0.40372
G1 X137.655 Y58.585 E0.42946
G1 X136.607 Y57.823 E0.45532
G1 X136.207 Y56.595 E0.48109
G1 X136.607 Y55.367 E0.50687
G0 F6000 X136.443 Y56
G1 F1200 X140.158 Y56 E0.581
G1 F3900 E-6.419
G0 F6000 X141.017 Y55.72
G0 X152.513 Y64.203
G0 X153.336 Y64.47
G1 F3900 E0.581
G1 F1200 X154.384 Y63.708 E0.60686
G1 X155.674 Y63.708 E0.63261
G1 X156.722 Y64.47 E0.65846
G1 X157.122 Y65.698 E0.68424
G1 X156.722 Y66.926 E0.71001
G1 X155.674 Y67.688 E0.73587
G1 X154.384 Y67.688 E0.76161
G1 X153.336 Y66.926 E0.78747
G1 X152.936 Y65.698 E0.81324
G1 X153.336 Y64.47 E0.83902
G0 F6000 X154.05 Y64
G1 F1200 X156.009 Y64 E0.87811
G1 F3900 E-6.12189
G0 F6000 X156.54 Y63.268
G0 X157.456 Y63.937
G0 X171.449 Y96.761
G0 X171.958 Y97.46
G1 F3900 E0.87811
G1 F1200 X173.746 Y97.46 E0.91379
G1 X175.197 Y98.515 E0.94959
G1 X175.751 Y100.216 E0.98529
G1 X175.598 Y100.683 E0.9951
G1 X176.598 Y104.352 E1.07099
G1 X176.366 Y105.066 E1.08597
G1 X176.977 Y107.546 E1.13694
G1 X176.72 Y108.337 E1.15354
G1 X177.079 Y109.973 E1.18696
G1 X176.846 Y111.154 E1.21099
G1 X177.052 Y111.786 E1.22425
G1 X176.867 Y112.354 E1.23617
G1 X177.167 Y114.619 E1.28177
G1 X177.185 Y116.884 E1.32697
G1 X177.097 Y119.233 E1.37388
G1 X176.979 Y122.089 E1.43092
G1 X177.185 Y123.488 E1.45914
G1 X177.185 Y125.165 E1.49261
G1 X176.621 Y126.897 E1.52896
G1 X175.17 Y127.952 E1.56476
G1 X173.382 Y127.952 E1.60044
G1 X171.939 Y126.902 E1.63606
G1 X171.369 Y124.501 E1.6853
G1 X171.573 Y122.073 E1.73393
G1 X171.367 Y120.58 E1.764
G1 X171.367 Y118.226 E1.81098
G1 X171.402 Y115.871 E1.85798
G1 X171.351 Y113.38 E1.9077
G1 X171.085 Y112.564 E1.92483
G1 X171.303 Y111.619 E1.94418
G1 X171.093 Y110.973 E1.95774
G1 X171.359 Y109.696 E1.98377
G1 X171.096 Y108.891 E2.00067
G1 X171.351 Y108.108 E2.0171
G1 X170.902 Y106.125 E2.05768
G1 X171.136 Y105.405 E2.07279
G1 X170.367 Y102.445 E2.13382
G1 X170.523 Y101.967 E2.14385
G1 X169.953 Y100.216 E2.1806
G1 X170.507 Y98.515 E2.2163
G1 X171.958 Y97.46 E2.2521
G1 F3900 E-4.7479
G0 F6000 X171.958 Y96.595
G0 X174.027 Y96.597
G0 X175.931 Y97.982
G0 X176.658 Y100.216
G0 X176.873 Y102.074
G0 X176 Y102.312
G1 F3900 E2.2521
G1 F1200 X176 Y127.299 E2.75074
G1 F3900 E-4.24926
G0 F6000 X176.532 Y128.03
G0 X177.929 Y120.037
G0 X177.025 Y120
G1 F3900 E2.75074
G1 F1200 X171.407 Y120 E2.86286
G1 F3900 E-4.13714
G0 F6000 X170.502 Y120
G0 X170.191 Y112.603
G0 X170.374 Y111.798
G0 X171.256 Y112
G1 F3900 E2.86286
G1 F1200 X176.94 Y112 E2.97629
G1 F3900 E-4.02371
G0 F6000 X177.926 Y111.679
G0 X177.925 Y110.105
G0 X177.874 Y107.579
G0 X177.536 Y104.694
G0 X177.333 Y103.762
G0 X176.461 Y104
G1 F3900 E2.97629
G1 F1200 X170.811 Y104 E3.08904
G1 F3900 E-3.91096
G0 F6000 X169.937 Y104.228
G0 X170.497 Y124.567
G0 X171.173 Y127.412
G0 X177.915 Y143.031
G0 X178.419 Y143.535
G0 X182.793 Y143.535
G0 X183.297 Y143.031
G0 X183.286 Y123.654
G0 X184.32 Y122.842
G0 X184.829 Y123.541
G1 F3900 E3.08904
G1 F1200 X186.28 Y122.486 E3.12484
G1 X188.068 Y122.486 E3.16052
G1 X189.519 Y123.541 E3.19632
G1 X190.073 Y125.242 E3.23202
G1 X189.519 Y126.943 E3.26772
G1 X188.068 Y127.998 E3.30352
G1 X186.28 Y127.998 E3.33921
G1 X184.829 Y126.943 E3.37501
G1 X184.275 Y125.242 E3.41071
G1 X184.829 Y123.541 E3.44641
G1 F3900 E-3.55359
;MESH:S20.001 Cople Pan-Tilt.STL
G0 F6000 X182.035 Y123.541
G0 X181.966 Y142.204
G1 F3900 E3.44641
G0 F6000 X182.036 Y142.274
;TYPE:WALL-INNER
G1 F1200 X179.176 Y142.274 E3.50348
G1 X179.176 Y55.065 E5.24383
G1 X174.825 Y50.714 E5.36663
G1 X133.489 Y50.714 E6.19153
G1 X133.488 Y47.863 E6.24843
G1 X133.594 Y47.854 E6.25055
G1 X182.034 Y47.854 E7.21722
G1 X182.036 Y142.274 E9.10148
G0 F6000 X182.436 Y142.674
;TYPE:WALL-OUTER
G1 F1200 X178.776 Y142.674 E9.17451
G1 X178.776 Y55.231 E10.91953
G1 X174.659 Y51.114 E11.03572
G1 X133.089 Y51.114 E11.8653
G1 X133.088 Y47.497 E11.93748
G1 X133.582 Y47.454 E11.94738
G1 X182.434 Y47.454 E12.92227
G1 X182.436 Y142.674 E14.82249
G0 F6000 X181.966 Y142.204
G0 X181.646 Y141.884
;TYPE:SKIN
G1 F1200 X179.566 Y141.884 E14.864
G1 X179.566 Y54.903 E16.5998
G1 X174.987 Y50.324 E16.72903
G1 X133.879 Y50.324 E17.54938
G1 X133.878 Y48.244 E17.59089
G1 X181.644 Y48.244 E18.54411
G1 X181.646 Y141.884 E20.4128
G0 F6000 X180.19 Y141.723
G1 F1200 X179.725 Y141.258 E20.42592
G0 F6000 X179.725 Y140.693
G1 F1200 X180.756 Y141.723 E20.455
G0 F6000 X181.321 Y141.723
G1 F1200 X179.725 Y140.127 E20.50005
G0 F6000 X179.725 Y139.561
G1 F1200 X181.484 Y141.32 E20.54969
G0 F6000 X181.484 Y140.755
G1 F1200 X179.725 Y138.995 E20.59935
G0 F6000 X179.725 Y138.43
G1 F1200 X181.484 Y140.189 E20.64899
G0 F6000 X181.484 Y139.623
G1 F1200 X179.725 Y137.864 E20.69863
G0 F6000 X179.725 Y137.298
G1 F1200 X181.484 Y139.058 E20.74829
G0 F6000 X181.484 Y138.492
G1 F1200 X179.725 Y136.733 E20.79793
G0 F6000 X179.725 Y136.167
G1 F1200 X181.484 Y137.926 E20.84758
G0 F6000 X181.484 Y137.361
G1 F1200 X179.725 Y135.601 E20.89723
G0 F6000 X179.725 Y135.036
G1 F1200 X181.484 Y136.795 E20.94687
G0 F6000 X181.484 Y136.229
G1 F1200 X179.725 Y134.47 E20.99652
G0 F6000 X179.725 Y133.904
G1 F1200 X181.484 Y135.664 E21.04617
G0 F6000 X181.484 Y135.098
G1 F1200 X179.725 Y133.339 E21.09582
G0 F6000 X179.725 Y132.773
G1 F1200 X181.484 Y134.532 E21.14546
G0 F6000 X181.484 Y133.967
G1 F1200 X179.725 Y132.207 E21.19512
G0 F6000 X179.725 Y131.642
G1 F1200 X181.484 Y133.401 E21.24476
G0 F6000 X181.484 Y132.835
G1 F1200 X179.725 Y131.076 E21.2944
G0 F6000 X179.725 Y130.51
G1 F1200 X181.484 Y132.269 E21.34405
G0 F6000 X181.484 Y131.704
G1 F1200 X179.725 Y129.945 E21.39369
G0 F6000 X179.725 Y129.379
G1 F1200 X181.484 Y131.138 E21.44333
G0 F6000 X181.484 Y130.572
G1 F1200 X179.725 Y128.813 E21.49297
G0 F6000 X179.725 Y128.247
G1 F1200 X181.484 Y130.007 E21.54263
G0 F6000 X181.484 Y129.441
G1 F1200 X179.725 Y127.682 E21.59227
G0 F6000 X179.725 Y127.116
G1 F1200 X181.484 Y128.875 E21.64192
G0 F6000 X181.484 Y128.31
G1 F1200 X179.725 Y126.55 E21.69157
G0 F6000 X179.725 Y125.985
G1 F1200 X181.484 Y127.744 E21.74122
G0 F6000 X181.484 Y127.178
G1 F1200 X179.725 Y125.419 E21.79086
G0 F6000 X179.725 Y124.853
G1 F1200 X181.484 Y126.613 E21.84052
G0 F6000 X181.484 Y126.047
G1 F1200 X179.725 Y124.288 E21.89016
G0 F6000 X179.725 Y123.722
G1 F1200 X181.484 Y125.481 E21.9398
G0 F6000 X181.484 Y124.916
G1 F1200 X179.725 Y123.156 E21.98946
G0 F6000 X179.725 Y122.591
G1 F1200 X181.484 Y124.35 E22.0391
G0 F6000 X181.484 Y123.784
G1 F1200 X179.725 Y122.025 E22.08874
G0 F6000 X179.725 Y121.459
G1 F1200 X181.484 Y123.219 E22.1384
G0 F6000 X181.484 Y122.653
G1 F1200 X179.725 Y120.894 E22.18804
G0 F6000 X179.725 Y120.328
G1 F1200 X181.484 Y122.087 E22.23769
G0 F6000 X181.484 Y121.521
G1 F1200 X179.725 Y119.762 E22.28733
G0 F6000 X179.725 Y119.196
G1 F1200 X181.484 Y120.956 E22.33699
G0 F6000 X181.484 Y120.39
G1 F1200 X179.725 Y118.631 E22.38663
G0 F6000 X179.725 Y118.065
G1 F1200 X181.484 Y119.824 E22.43627
G0 F6000 X181.484 Y119.259
G1 F1200 X179.725 Y117.499 E22.48593
G0 F6000 X179.725 Y116.934
G1 F1200 X181.484 Y118.693 E22.53557
G0 F6000 X181.484 Y118.127
G1 F1200 X179.725 Y116.368 E22.58521
G0 F6000 X179.725 Y115.802
G1 F1200 X181.484 Y117.562 E22.63487
G0 F6000 X181.484 Y116.996
G1 F1200 X179.725 Y115.237 E22.68451
G0 F6000 X179.725 Y114.671
G1 F1200 X181.484 Y116.43 E22.73416
G0 F6000 X181.484 Y115.865
G1 F1200 X179.725 Y114.105 E22.78381
G0 F6000 X179.725 Y113.54
G1 F1200 X181.484 Y115.299 E22.83346
G0 F6000 X181.484 Y114.733
G1 F1200 X179.725 Y112.974 E22.8831
G0 F6000 X179.725 Y112.408
G1 F1200 X181.484 Y114.168 E22.93276
G0 F6000 X181.484 Y113.602
G1 F1200 X179.725 Y111.843 E22.9824
G0 F6000 X179.725 Y111.277
G1 F1200 X181.484 Y113.036 E23.03204
G0 F6000 X181.484 Y112.47
G1 F1200 X179.725 Y110.711 E23.08168
G0 F6000 X179.725 Y110.146
G1 F1200 X181.484 Y111.905 E23.13133
G0 F6000 X181.484 Y111.339
G1 F1200 X179.725 Y109.58 E23.18097
G0 F6000 X179.725 Y109.014
G1 F1200 X181.484 Y110.773 E23.23061
G0 F6000 X181.484 Y110.208
G1 F1200 X179.725 Y108.448 E23.28027
G0 F6000 X179.725 Y107.883
G1 F1200 X181.484 Y109.642 E23.32991
G0 F6000 X181.484 Y109.076
G1 F1200 X179.725 Y107.317 E23.37955
G0 F6000 X179.725 Y106.751
G1 F1200 X181.484 Y108.511 E23.42921
G0 F6000 X181.484 Y107.945
G1 F1200 X179.725 Y106.186 E23.47885
G0 F6000 X179.725 Y105.62
G1 F1200 X181.484 Y107.379 E23.5285
G0 F6000 X181.484 Y106.814
G1 F1200 X179.725 Y105.054 E23.57815
G0 F6000 X179.725 Y104.489
G1 F1200 X181.484 Y106.248 E23.6278
G0 F6000 X181.484 Y105.682
G1 F1200 X179.725 Y103.923 E23.67744
G0 F6000 X179.725 Y103.357
G1 F1200 X181.484 Y105.117 E23.7271
G0 F6000 X181.484 Y104.551
G1 F1200 X179.725 Y102.792 E23.77674
G0 F6000 X179.725 Y102.226
G1 F1200 X181.484 Y103.985 E23.82638
G0 F6000 X181.484 Y103.42
G1 F1200 X179.725 Y101.66 E23.87604
G0 F6000 X179.725 Y101.095
G1 F1200 X181.484 Y102.854 E23.92568
G0 F6000 X181.484 Y102.288
G1 F1200 X179.725 Y100.529 E23.97532
G0 F6000 X179.725 Y99.963
G1 F1200 X181.484 Y101.722 E24.02497
G0 F6000 X181.484 Y101.157
G1 F1200 X179.725 Y99.398 E24.07461
G0 F6000 X179.725 Y98.832
G1 F1200 X181.484 Y100.591 E24.12425
G0 F6000 X181.484 Y100.025
G1 F1200 X179.725 Y98.266 E24.1739
G0 F6000 X179.725 Y97.7
G1 F1200 X181.484 Y99.46 E24.22355
G0 F6000 X181.484 Y98.894
G1 F1200 X179.725 Y97.135 E24.2732
G0 F6000 X179.725 Y96.569
G1 F1200 X181.484 Y98.328 E24.32284
G0 F6000 X181.484 Y97.763
G1 F1200 X179.725 Y96.003 E24.37249
G0 F6000 X179.725 Y95.438
G1 F1200 X181.484 Y97.197 E24.42214
G0 F6000 X181.484 Y96.631
G1 F1200 X179.725 Y94.872 E24.47178
G0 F6000 X179.725 Y94.306
G1 F1200 X181.484 Y96.066 E24.52144
G0 F6000 X181.484 Y95.5
G1 F1200 X179.725 Y93.741 E24.57108
G0 F6000 X179.725 Y93.175
G1 F1200 X181.483 Y94.934 E24.62071
G0 F6000 X181.483 Y94.368
G1 F1200 X179.725 Y92.609 E24.67034
G0 F6000 X179.725 Y92.044
G1 F1200 X181.483 Y93.802 E24.71995
G0 F6000 X181.483 Y93.236
G1 F1200 X179.725 Y91.478 E24.76957
G0 F6000 X179.725 Y90.912
G1 F1200 X181.483 Y92.671 E24.8192
G0 F6000 X181.483 Y92.105
G1 F1200 X179.725 Y90.347 E24.86881
G0 F6000 X179.725 Y89.781
G1 F1200 X181.483 Y91.539 E24.91842
G0 F6000 X181.483 Y90.974
G1 F1200 X179.725 Y89.215 E24.96805
G0 F6000 X179.725 Y88.649
G1 F1200 X181.483 Y90.408 E25.01768
G0 F6000 X181.483 Y89.842
G1 F1200 X179.725 Y88.084 E25.0673
G0 F6000 X179.725 Y87.518
G1 F1200 X181.483 Y89.277 E25.11692
G0 F6000 X181.483 Y88.711
G1 F1200 X179.725 Y86.952 E25.16655
G0 F6000 X179.725 Y86.387
G1 F1200 X181.483 Y88.145 E25.21617
G0 F6000 X181.483 Y87.58
G1 F1200 X179.725 Y85.821 E25.2658
G0 F6000 X179.725 Y85.255
G1 F1200 X181.483 Y87.014 E25.31543
G0 F6000 X181.483 Y86.448
G1 F1200 X179.725 Y84.69 E25.36504
G0 F6000 X179.725 Y84.124
G1 F1200 X181.483 Y85.883 E25.41467
G0 F6000 X181.483 Y85.317
G1 F1200 X179.725 Y83.558 E25.4643
G0 F6000 X179.725 Y82.993
G1 F1200 X181.483 Y84.751 E25.51391
G0 F6000 X181.483 Y84.186
G1 F1200 X179.725 Y82.427 E25.56354
G0 F6000 X179.725 Y81.861
G1 F1200 X181.483 Y83.62 E25.61317
G0 F6000 X181.483 Y83.054
G1 F1200 X179.725 Y81.296 E25.66278
G0 F6000 X179.725 Y80.73
G1 F1200 X181.483 Y82.488 E25.7124
G0 F6000 X181.483 Y81.923
G1 F1200 X179.725 Y80.164 E25.76203
G0 F6000 X179.725 Y79.599
G1 F1200 X181.483 Y81.357 E25.81164
G0 F6000 X181.483 Y80.791
G1 F1200 X179.725 Y79.033 E25.86126
G0 F6000 X179.725 Y78.467
G1 F1200 X181.483 Y80.226 E25.91088
G0 F6000 X181.483 Y79.66
G1 F1200 X179.725 Y77.901 E25.96051
G0 F6000 X179.725 Y77.336
G1 F1200 X181.483 Y79.094 E26.01013
G0 F6000 X181.483 Y78.529
G1 F1200 X179.725 Y76.77 E26.05976
G0 F6000 X179.725 Y76.204
G1 F1200 X181.483 Y77.963 E26.10939
G0 F6000 X181.483 Y77.397
G1 F1200 X179.725 Y75.639 E26.159
G0 F6000 X179.725 Y75.073
G1 F1200 X181.483 Y76.832 E26.20863
G0 F6000 X181.483 Y76.266
G1 F1200 X179.725 Y74.507 E26.25826
G0 F6000 X179.725 Y73.942
G1 F1200 X181.483 Y75.7 E26.30787
G0 F6000 X181.483 Y75.135
G1 F1200 X179.725 Y73.376 E26.3575
G0 F6000 X179.725 Y72.81
G1 F1200 X181.483 Y74.569 E26.40713
G0 F6000 X181.483 Y74.003
G1 F1200 X179.725 Y72.245 E26.45674
G0 F6000 X179.725 Y71.679
G1 F1200 X181.483 Y73.437 E26.50636
G0 F6000 X181.483 Y72.872
G1 F1200 X179.725 Y71.113 E26.55599
G0 F6000 X179.725 Y70.548
G1 F1200 X181.483 Y72.306 E26.6056
G0 F6000 X181.483 Y71.74
G1 F1200 X179.725 Y69.982 E26.65522
G0 F6000 X179.725 Y69.416
G1 F1200 X181.483 Y71.175 E26.70484
G0 F6000 X181.483 Y70.609
G1 F1200 X179.725 Y68.85 E26.75447
G0 F6000 X179.725 Y68.285
G1 F1200 X181.483 Y70.043 E26.80409
G0 F6000 X181.483 Y69.478
G1 F1200 X179.725 Y67.719 E26.85372
G0 F6000 X179.725 Y67.153
G1 F1200 X181.483 Y68.912 E26.90335
G0 F6000 X181.483 Y68.346
G1 F1200 X179.725 Y66.588 E26.95296
G0 F6000 X179.725 Y66.022
G1 F1200 X181.483 Y67.781 E27.00259
G0 F6000 X181.483 Y67.215
G1 F1200 X179.725 Y65.456 E27.05222
G0 F6000 X179.725 Y64.891
G1 F1200 X181.483 Y66.649 E27.10183
G0 F6000 X181.483 Y66.084
G1 F1200 X179.725 Y64.325 E27.15146
G0 F6000 X179.725 Y63.759
G1 F1200 X181.483 Y65.518 E27.20109
G0 F6000 X181.483 Y64.952
G1 F1200 X179.725 Y63.194 E27.2507
G0 F6000 X179.725 Y62.628
G1 F1200 X181.483 Y64.387 E27.30033
G0 F6000 X181.483 Y63.821
G1 F1200 X179.725 Y62.062 E27.34996
G0 F6000 X179.725 Y61.497
G1 F1200 X181.483 Y63.255 E27.39958
G0 F6000 X181.483 Y62.689
G1 F1200 X179.725 Y60.931 E27.44919
G0 F6000 X179.725 Y60.365
G1 F1200 X181.483 Y62.124 E27.49882
G0 F6000 X181.483 Y61.558
G1 F1200 X179.725 Y59.8 E27.54843
G0 F6000 X179.725 Y59.234
G1 F1200 X181.483 Y60.992 E27.59805
G0 F6000 X181.483 Y60.427
G1 F1200 X179.725 Y58.668 E27.64768
G0 F6000 X179.725 Y58.102
G1 F1200 X181.483 Y59.861 E27.69731
G0 F6000 X181.483 Y59.295
G1 F1200 X179.725 Y57.537 E27.74692
G0 F6000 X179.725 Y56.971
G1 F1200 X181.483 Y58.73 E27.79655
G0 F6000 X181.483 Y58.164
G1 F1200 X179.725 Y56.405 E27.84618
G0 F6000 X179.725 Y55.84
G1 F1200 X181.483 Y57.598 E27.89579
G0 F6000 X181.483 Y57.033
G1 F1200 X179.725 Y55.274 E27.94542
G0 F6000 X181.483 Y55.336
G1 F1200 X174.552 Y48.404 E28.14104
G0 F6000 X175.117 Y48.404
